X: 149123
Q: "Slow."
M: 2/4
L: 1/16
K: D
(FG) |\
b2af a2fe | f2ed e2f2 |
ud3uB ABdF | A4 A2dc |\
(fg) |\
a3ba2f2 | afab a3f | agfe defg | a4 a2fa |\
b3d'b2a2 |
babd' b2a2 | b2af e2fa | b4 b2fa |\
bafb afea | gfed e2f2 | d3B ABdF | A4 A2dc |\


